X:1
T:Title
%%score { ( 1 3 ) | ( 2 4 ) }
L:1/8
M:4/4
K:F
V:1 treble nm="Grand Piano"
V:3 treble 
V:2 bass 
V:4 bass 
V:1
 z4 z2[Q:1/4=100] F>G | A>A A>A A>A G>A |[M:3/4] B>B B>B B2 |[M:1/4] B>A | %4
[M:4/4] [EG]>[EG] [EG]>[EG] [EG]>[CEG] [CF]>[CEG] |[M:3/4] A>A A>A A2 |[M:1/4] F>G | %7
[M:4/4] A>A A>A A>A G>A |[M:3/4] [DFB]>[DFB] [DFB]>[DFB] [Gd]2 |[M:1/4] [Fd]>[Fd] | %10
[M:4/4] c>c c>c A>A [CF]>[DFG] |[M:7/8] [CFA]>[CFA][CEA]>[B,EG] [A,F]3 | %12
[M:11/32] [Ac]/4-[Ac]/4-[Ac]/4-[Ac]/4-[Ac]/4-[Ac]/4-[Ac]/-<[Ac]/ z/4 | %13
[M:4/4] (7:8:6A3/2A/-A3/2 Ac3/2A | (5:4:5B2 B/ B/-B3/2A/ G3- G/4 z/4 z/ | G2- G/4 z/4 z/ z z4 | %16
[M:39/32] d/4-d/4-d/4-d/-<d/ z/4 c/4-c/4-c/4-c/-<c/ z/4 z/4 z/4 z/4 z/4 z/4 z/4 z/4 z/4 z/4 z/4 z/ [Ac]/4-[Ac]/4-[Ac]/4-[Ac]/4-[Ac]/4-[Ac]/-<[Ac]/ z/ | %17
[M:4/4] A2 A2 A c2 c | [DB]>[DB] [DFB]>[DFB] [Fd]3 [Fd] | [Fc]3 [DFB] [CEA]2 [B,EG]2 | %20
[M:3/4] [F,A,F]6 |] %21
V:2
 z4 z2 [F,A,C]>[F,B,C] | [F,CF]>[F,CF] [F,CF]>[F,CF] [F,CF]>[F,CF] [E,C]>[F,CF] | %2
[M:3/4] [G,CE]>[G,CE] [G,CE]>[G,CE] [G,CE]2 |[M:1/4] [G,CE]>[F,CF] | %4
[M:4/4] [C,C]>[C,C] [C,C]>[C,C] [C,C]>B,, A,,>C, |[M:3/4] [F,CF]>[F,CF] [F,CF]>[F,CF] [F,CF]2 | %6
[M:1/4] [F,A,C]>[F,B,C] |[M:4/4] [F,CF]>[F,CF] [F,CF]>[F,CF] [F,CF]>[F,CF] [F,CF]>[F,_EF] | %8
[M:3/4] B,,>B,, B,,>B,, [B,,B,]2 |[M:1/4] [B,,B,]>[B,,B,] | %10
[M:4/4] [F,A,F]>[F,A,F] [F,A,F]>[F,A,F] [F,CF]>[F,CF] A,,>B,, |[M:7/8] C,>C,C,>C, F,3 | %12
[M:11/32][K:treble] [F,F]/4-[F,F]/4-[F,F]/4-[F,F]/4-[F,F]/-<[F,F]/[F,F]3/4 | %13
[M:4/4] [CF]2- [CF]/4 z/4 z/ z[K:bass] z4 | %14
 (5:4:5[G,CE]2 [G,CE]/ [G,CE]/-[G,CE]3/2[F,CF]/ C3- C/4 z/4 z/ | C2- C/4 z/4 z/ z z4 | %16
[M:39/32][K:treble] B,/4-B,/4-B,/-<B,/-[F,-A,-B,F-]/4[F,A,F]/4A,/4-A,/4-A,/-<A,/-[A,C-]/4C/4-[F,-CF-]/4[F,F]/4-[F,F]/4-[F,F]/4-[F,F]/4-[F,F]/4-[F,F]/4-[F,F]/4-[F,F]/-<[F,F]/[K:bass][F,F]/4-[F,F]/4-[F,F]/4-[F,F]/4-[F,F]/-<[F,F]/[F,F]3/4 | %17
[M:4/4] [F,CF]2 [F,CF]2 [F,CF] [F,A,F]2 [F,A,_E] | [B,,B,]>[B,,B,] B,,>B,, [B,,B,]3 [B,,B,] | %19
 [C,A,]3 C, C,2 C,2 |[M:3/4] F,,6 |] %21
V:3
 x8 | x8 |[M:3/4] x6 |[M:1/4] x2 |[M:4/4] x8 |[M:3/4] x6 |[M:1/4] x2 |[M:4/4] x8 |[M:3/4] x6 | %9
[M:1/4] x2 |[M:4/4] x8 |[M:7/8] x7 |[M:11/32] z/4 z/4 z/4 z/4 z/4 z/4 z/ [GB]3/4 |[M:4/4] x8 | %14
 z4 (3:2:2E4 [EG]2 | (7:8:6E3/2[EG]/-[EG]3/2 [EG][EB]3/2[Ed] | %16
[M:39/32] z/4 z/4 z/4 z/4 z/ c/ z/4 z/4 z/4 z/4 z/ A/[Ac]/4-[Ac]/4-[Ac]/4-[Ac]/4-[Ac]/4-[Ac]/4-[Ac]/4-[Ac]/4-[Ac]/-<[Ac]/ z/4 z/4 z/4 z/4 z/4 z/4 z/ [GB]3/4 | %17
[M:4/4] x8 | x8 | x8 |[M:3/4] x6 |] %21
V:4
 x8 | x8 |[M:3/4] x6 |[M:1/4] x2 |[M:4/4] x8 |[M:3/4] x6 |[M:1/4] x2 |[M:4/4] x8 |[M:3/4] x6 | %9
[M:1/4] x2 |[M:4/4] x8 |[M:7/8] x7 |[M:11/32][K:treble] x11/4 | %13
[M:4/4] (7:8:6F,3/2[F,CF]/-[F,CF]3/2 [F,CF][K:bass][F,A,F]3/2[F,CF] | z4 (3:2:2C,4 [C,C]2 | %15
 (7:8:6C,3/2[C,C]/-[C,C]3/2 [C,C][C,C]3/2[C,B,] | %16
[M:39/32][K:treble] [F,F]/4-[F,F]/4-[F,F]/-<[F,F]/ z/ [F,F]/4-[F,F]/4-[F,F]/-<[F,F]/[F,F]/ z/4 z/4 z/4 z/4 z/4 z/4 z/4 z/4 z/4 z/4 z/4 z/4[K:bass] z/4 z/4 z/4 z/4 z/4 z/4 z/4 z/4 z/4 z/ | %17
[M:4/4] x8 | x8 | x8 |[M:3/4] x6 |] %21

